X:90
T: Bill O'Keeffe's #1
S: "Johnny O'Leary of Sliabh Luachra" (#162)
Z: B.Black
L: 1/8
M: 4/4
R: reel
K: Edor
fe|dB B2 dB B2|db B2 f2 fe|dB B2 db B2|cBAc e2 fe|
dB B2 dB B2|db B2 g2 fe|dB B2 dBBA|F/G/ADF E4 ||
g2-ge fgfe|edBc d2 ef|g2-ge fede|fbba feef|
g2-ge fgfe|edBc d2-de|fzed B2 AB|AFDF E2-Ec ||
